!!!CDT:
!!!PTL: L'Armida del Tasso posta in musica a cinque voci, col suo basso per suonare
!!!PPP: Venice
!!!PPR: Alessandro Vincenti
!!!PDT: 1629
!!!PUB-format:
!!!RISM: E 741
!!!AGN: Madrigal
!!!SCT: Tsg20134a
!!!SCA: Tsg20134a
!!!original-voices: 5+bc
!!!extant-voices: 5+bc
!!!complete: Y
!!!final: G
!!!COM: Eredi, Francesco
!!!OTL: Così doleasi; e con le flebil'onde
**kern	**fb	**kern	**text	**kern	**text	**kern	**text	**kern	**text	**kern	**text
*part6	*part6	*part5	*part5	*part4	*part4	*part3	*part3	*part2	*part2	*part1	*part1
*staff6	*staff6	*staff5	*staff5	*staff4	*staff4	*staff3	*staff3	*staff2	*staff2	*staff1	*staff1
*I"Basso continuo	*	*I"Basso	*	*I"Tenore	*	*I"Quinto	*	*I"Alto	*	*I"Canto	*
*I'Bc	*	*I'B	*	*I'T	*	*I'V	*	*I'A	*	*I'C	*
*oclefF4	*	*oclefF4	*	*oclefC4	*	*oclefC4	*	*oclefC3	*	*oclefC1	*
*clefF4	*	*clefF4	*	*clefGv2	*	*clefGv2	*	*clefGv2	*	*clefG2	*
*k[]	*	*k[]	*	*k[]	*	*k[]	*	*k[]	*	*k[]	*
*C:	*	*C:	*	*C:	*	*C:	*	*C:	*	*C:	*
*omet(C)	*	*omet(C)	*	*omet(C)	*	*omet(C)	*	*omet(C)	*	*omet(C)	*
*M4/4	*	*M4/4	*	*M4/4	*	*M4/4	*	*M4/4	*	*M4/4	*
=1	=1	=1	=1	=1	=1	=1	=1	=1	=1	=1	=1
!!LO:TX:a:t=Decima e ultima parte
2D	.	1r	.	1r	.	4r	.	4r	.	2r	.
.	.	.	.	.	.	4d	Co-	4f	Co-	.	.
[2C	6	.	.	.	.	[2c	-sì	[2e	-sì	4r	.
.	.	.	.	.	.	.	.	.	.	4a	Co-
=2	=2	=2	=2	=2	=2	=2	=2	=2	=2	=2	=2
4C]	.	1r	.	1r	.	4c]	.	4e]	.	2.g	-sì
4BB-X	6	.	.	.	.	4B-X	do-	4d	do-	.	.
2BB-i	.	.	.	.	.	2B-i	-lea-	[2d	-lea-	.	.
.	.	.	.	.	.	.	.	.	.	4f	do-
=3	=3	=3	=3	=3	=3	=3	=3	=3	=3	=3	=3
1AA	#	1r	.	1r	.	1A	-si;	2d]	.	2f	-lea-
.	.	.	.	.	.	.	.	2c#X	-si;	2e	-si;
=4	=4	=4	=4	=4	=4	=4	=4	=4	=4	=4	=4
2A	#	8r	.	4r	.	8r	.	8r	.	8r	.
.	.	8A	e	.	.	8c#i	e	8e	e	8a	e
.	.	8A	con	8r	.	8c#X	con	8e	con	8a	con
.	.	8A	le	8A	e	8c#X	le	8e	le	8a	le
4F#X	.	4F#X	fle-	8A	con	4d	fle-	4d	fle-	4a	fle-
.	.	.	.	8A	le	.	.	.	.	.	.
4G	.	4G	-bil	8G	fle-	4B	-bil	4d	-bil	4b	-bil
.	.	.	.	8G	-bil	.	.	.	.	.	.
=5	=5	=5	=5	=5	=5	=5	=5	=5	=5	=5	=5
2C	.	4C	on-	4G	on-	4c	on-	4e	on-	4g	on-
.	.	4C	-de	4G	-de	4c	-de	4e	-de	4g	-de
2C	.	2r	.	4r	.	2r	.	2r	.	4r	.
.	.	.	.	4c	Ch’a-	.	.	.	.	4g	Ch’a-
=6	=6	=6	=6	=6	=6	=6	=6	=6	=6	=6	=6
4C	.	4r	.	2c	-mor,	4r	.	4r	.	2g	-mor,
4C	.	8r	.	.	.	8r	.	8r	.	.	.
.	.	8C	e	.	.	8c	e	8e	e	.	.
4G	.	4G	sde-	4r	.	4B	sde-	4d	sde-	4r	.
4G	.	4G	-gno,	4d	<Ch’a-	4B	-gno,	4d	-gno,	4b	<Ch’a-
=7	=7	=7	=7	=7	=7	=7	=7	=7	=7	=7	=7
4E	#	4r	.	2e	-mor,>	4r	.	4r	.	2b	-mor,>
4E	.	8r	.	.	.	8r	.	8r	.	.	.
.	.	8E	<e	.	.	8B	<e	8g#X	<e	.	.
4A	.	4A	sde-	4r	.	4c	sde-	4a	sde-	4r	.
4A	.	4A	-gno>,	4e	<Ch’a-	4c	-gno>	4e	-gno,>	4a	<Ch’a-
=8	=8	=8	=8	=8	=8	=8	=8	=8	=8	=8	=8
4F	.	4r	.	4f	-mor>	1r	.	4r	.	4a	-mor>
4F	.	8r	.	8r	.	.	.	8r	.	8r	.
.	.	8F	<e	8f	e	.	.	8a	<e	8cc	e
2C	.	4c	sde-	4e	sde-	.	.	4g	sde-	4cc	sde-
.	.	4c	-gno>	4e	-gno	.	.	4g	-gno>	4cc	-gno
=9	=9	=9	=9	=9	=9	=9	=9	=9	=9	=9	=9
4C	.	1r	.	1r	.	4r	.	4r	.	8g	da
.	.	.	.	.	.	.	.	.	.	8g	be-
4C	6	.	.	.	.	8c	da	8e	da	2a	-gli oc-
.	.	.	.	.	.	8c	be-	8e	be-	.	.
4D	.	.	.	.	.	4d	-gli oc-	4.f	-gli oc-	.	.
4BB-X	.	.	.	.	.	4B-X	-chi	.	.	4d	-chi
.	.	.	.	.	.	.	.	8d	-chi	.	.
=10	=10	=10	=10	=10	=10	=10	=10	=10	=10	=10	=10
2AA	.	1r	.	2r	.	2A	stil-	4d	stil-	2e	stil-
.	.	.	.	.	.	.	.	4c#X	.	.	.
2D	#	.	.	8r	.	2D	-la	2d	-la	2f#X	-la
.	.	.	.	8A	L’af-	.	.	.	.	.	.
.	.	.	.	8A	-fet-	.	.	.	.	.	.
.	.	.	.	8A	-tu-	.	.	.	.	.	.
=11	=11	=11	=11	=11	=11	=11	=11	=11	=11	=11	=11
2D	.	8r	.	4d	-o-	8r	.	8r	.	8r	.
.	.	8D	L’af-	.	.	8A	L’af-	8d	L’af-	8f#i	L’af-
.	.	8D	-fet-	4d	-so	8A	-fet-	8d	-fet-	8f#X	-fet-
.	.	8D	-tu-	.	.	8A	-tu-	8d	-tu-	8f#X	-tu-
4G	.	4G	-o-	4B	pian-	4B	-o-	4d	-o-	4g	-o-
4G	.	4G	-so	4d	-to	4B	-so	4d	-so	4g	-so
=12	=12	=12	=12	=12	=12	=12	=12	=12	=12	=12	=12
2E	#	2E	pian-	2r	.	2B	pian-	2e	pian-	2g#i	pian-
2E	.	2E	-to	4r	.	2B	-to	2e	-to	2g#X	-to
.	.	.	.	4e	e-	.	.	.	.	.	.
=13	=13	=13	=13	=13	=13	=13	=13	=13	=13	=13	=13
4A	.	4A	e-	4c	-gli	1r	.	4r	.	2r	.
4F	.	4F	-gli	4A	con-	.	.	4a	e-	.	.
4D	.	4D	con-	4d	-fon-	.	.	4f	-gli	4dd	e-
4G	.	4G	-fon-	4d	-de,	.	.	4d	con-	4b	-gli
=14	=14	=14	=14	=14	=14	=14	=14	=14	=14	=14	=14
4E	.	4E	-de,	4e	con-	2r	.	4g	-fon-	4g	con-
4C	.	4C	<e-	2e	-fon-	.	.	8e	-de,	2cc	-fon-
.	.	.	.	.	.	.	.	8e	<e-	.	.
4AA	.	4AA	-gli	.	.	4A	e-	4c	-gli	.	.
4D	.	4D	con-	4d	-de,	4F	-gli	4A	con-	4dd	-de,
=15	=15	=15	=15	=15	=15	=15	=15	=15	=15	=15	=15
4BB	.	4BB	-fon-	4r	.	4D	con-	4B	-fon-	4dd	<e-
4GG	.	4GG	-de>	4G	e-	4d	-fon-	2g	-de>,	2b	-gli
4E	.	2r	.	4E	-gli	4e	-de,	.	.	.	.
4C	.	.	.	4C	con-	4e	con-	4g	con-	4cc	con-
=16	=16	=16	=16	=16	=16	=16	=16	=16	=16	=16	=16
4G	.	2r	.	4G	-fon-	4d	-fon-	4g	-fon-	4b	-fon-
4C	.	.	.	4C	-de	4c	-de	4g	-de	4cc	-de>
2F	.	8r	.	8r	.	8r	.	8r	.	8r	.
.	.	8F	In	8c	In	8A	In	8f	In	8cc	In
.	.	8F	cui	8c	cui	8A	cui	8f	cui	8cc	cui
.	.	8F	pu-	8c	pu-	8A	pu-	8f	pu-	8cc	pu-
=17	=17	=17	=17	=17	=17	=17	=17	=17	=17	=17	=17
4F	.	4F	-di-	4c	-di-	4A	-di-	4f	-di-	4a	-di-
4F	.	4F	-ca	4c	-ca	4A	-ca	4a	-ca	4cc	-ca
2A	.	4r	.	4r	.	2r	.	4a	la	8ee	la
.	.	.	.	.	.	.	.	.	.	8cc	pie-
.	.	8A	la	8c	la	.	.	4e	pie-	4cc	-tà,
.	.	8AA	pie-	8c	pie-	.	.	.	.	.	.
=18	=18	=18	=18	=18	=18	=18	=18	=18	=18	=18	=18
2AA	.	2AA	-tà	2c	-tà	4r	.	4.e	-tà	8cc	<la
.	.	.	.	.	.	.	.	.	.	8a	pie-
.	.	.	.	.	.	8e	la	.	.	4cc	-tà,>
.	.	.	.	.	.	8E	pie-	16dL	.	.	.
.	.	.	.	.	.	.	.	16cJ	.	.	.
2GG	-	2GG	sfa-	2B-X	sfa-	[2G	-tà	4d	.	8r	.
.	.	.	.	.	.	.	.	.	.	8g	<la
.	.	.	.	.	.	.	.	[4e	sfa-	4g	pie-
=19	=19	=19	=19	=19	=19	=19	=19	=19	=19	=19	=19
1AA	#	1AA	-vil-	1A	-vil-	4G]	.	4e]	.	4c#X	-tà>
.	.	.	.	.	.	4F	sfa-	2d	-vil-	4d	sfa-
.	.	.	.	.	.	2E	-vil-	.	.	2e	-vil-
.	.	.	.	.	.	.	.	4c#X	.	.	.
=20	=20	=20	=20	=20	=20	=20	=20	=20	=20	=20	=20
1D	.	1D	-la	1A	-la	2D	-la	1d	-la	1f#X	-la
.	.	.	.	.	.	4D	E	.	.	.	.
.	.	.	.	.	.	4E	con	.	.	.	.
=21	=21	=21	=21	=21	=21	=21	=21	=21	=21	=21	=21
2F	.	1r	.	4A	E	2F	mo-	1r	.	1r	.
.	.	.	.	4B	con	.	.	.	.	.	.
4E	6	.	.	2c	mo-	4E	-di	.	.	.	.
4F	.	.	.	.	.	4F	dol-	.	.	.	.
=22	=22	=22	=22	=22	=22	=22	=22	=22	=22	=22	=22
4G	.	2r	.	4B	-di	8G	-cis-	1r	.	1r	.
.	.	.	.	.	.	8G	-si-	.	.	.	.
8FL	.	.	.	4c	dol-	8F	-mi	.	.	.	.
8EJ	.	.	.	.	.	8E	ris-	.	.	.	.
4D	.	4D	E	8d	-cis-	4A	-pon-	.	.	.	.
.	.	.	.	8d	-si-	.	.	.	.	.	.
4E	.	4E	con	8c	-mi	4G	-de,	.	.	.	.
.	.	.	.	8B	ri-	.	.	.	.	.	.
=23	=23	=23	=23	=23	=23	=23	=23	=23	=23	=23	=23
2F	.	2F	mo-	2A	-spon-	4c	E	1r	.	4a	E
.	.	.	.	.	.	4d	con	.	.	4b	con
4E	6	4E	-di	2G	-de,	2e	mo-	.	.	2cc	mo-
4F	.	4F	dol-	.	.	.	.	.	.	.	.
=24	=24	=24	=24	=24	=24	=24	=24	=24	=24	=24	=24
4G	.	8G	-cis-	2r	.	2d	-di	2r	.	4b	-di
.	.	8G	-si-	.	.	.	.	.	.	.	.
8FL	.	8F	-mi	.	.	.	.	.	.	4cc	dol-
8EJ	.	8E	ris-	.	.	.	.	.	.	.	.
4D	.	4D	-pon-	4A	<E	4r	.	4d	E	8dd	-cis-
.	.	.	.	.	.	.	.	.	.	8dd	-si-
4AA	.	4AA	.	4c	con	4A	dol-	4e	con	8cc	-mi
.	.	.	.	.	.	.	.	.	.	8b	ris-
=25	=25	=25	=25	=25	=25	=25	=25	=25	=25	=25	=25
8DL	.	8DL	-de	2d	mo-	8A	-cis-	2f	mo-	2a	-pon-
8EJ	.	8EJ	.	.	.	8A	-si-	.	.	.	.
8FL	.	8FL	.	.	.	8A	-mi	.	.	.	.
8GJ	.	8GJ	.	.	.	8B	ris-	.	.	.	.
2A	.	2A	.	4c	-di	4c	-pon-	4e	-di	2a	-de
.	.	.	.	4d	dol-	4A	-de	4f	dol-	.	.
=26	=26	=26	=26	=26	=26	=26	=26	=26	=26	=26	=26
4E	.	1r	.	8e	-cis-	1r	.	8g	-cis-	1r	.
.	.	.	.	8e	-si-	.	.	8g	-si-	.	.
4F	.	.	.	8d	-mi	.	.	8f	-mi	.	.
.	.	.	.	8c	ri-	.	.	8e	ris-	.	.
2G	.	.	.	4c	-spon-	.	.	2d	-pon-	.	.
.	.	.	.	4B	.	.	.	.	.	.	.
=27	=27	=27	=27	=27	=27	=27	=27	=27	=27	=27	=27
2C	.	1r	.	2c	-de>	2r	.	2e	-de	1r	.
2C	.	.	.	2r	.	4r	.	2r	.	.	.
.	.	.	.	.	.	4e	Ar-	.	.	.	.
=28	=28	=28	=28	=28	=28	=28	=28	=28	=28	=28	=28
2F	.	1r	.	1r	.	8.AL	-mi-	1r	.	1r	.
.	.	.	.	.	.	16BJ	.	.	.	.	.
.	.	.	.	.	.	16cL	.	.	.	.	.
.	.	.	.	.	.	16B	.	.	.	.	.
.	.	.	.	.	.	16c	.	.	.	.	.
.	.	.	.	.	.	16AJ	.	.	.	.	.
2E	.	.	.	.	.	2B	-da	.	.	.	.
=29	=29	=29	=29	=29	=29	=29	=29	=29	=29	=29	=29
2E	.	1r	.	1r	.	4r	.	1r	.	1r	.
.	.	.	.	.	.	4B	il	.	.	.	.
2C	.	.	.	.	.	2e	cor,	.	.	.	.
=30	=30	=30	=30	=30	=30	=30	=30	=30	=30	=30	=30
2.D	.	1r	.	1r	.	4r	.	1r	.	1r	.
.	.	.	.	.	.	4A	il	.	.	.	.
.	.	.	.	.	.	8.d	cor	.	.	.	.
.	.	.	.	.	.	16c	tur-	.	.	.	.
4AA	.	.	.	.	.	4c	-ba-	.	.	.	.
=31	=31	=31	=31	=31	=31	=31	=31	=31	=31	=31	=31
!!LO:TX:a:t=[half]&rarr;[half-dot]
*M6/4	*	*M6/4	*	*M6/4	*	*M6/4	*	*M6/4	*	*M6/4	*
2E	.	1.r	.	1.r	.	4B	-to	1.r	.	1.r	.
.	.	.	.	.	.	4e	ho-	.	.	.	.
4F	.	.	.	.	.	4c	-mai	.	.	.	.
4D	.	.	.	.	.	4d	tran-	.	.	.	.
2E	.	.	.	.	.	2B	-quil-	.	.	.	.
=32	=32	=32	=32	=32	=32	=32	=32	=32	=32	=32	=32
4A	.	1.r	.	1.r	.	4A	-la,	1.r	.	1.r	.
4D	.	.	.	.	.	4d	ho-	.	.	.	.
4E	.	.	.	.	.	4B	-mai	.	.	.	.
4C	.	.	.	.	.	4c	tran-	.	.	.	.
2D	.	.	.	.	.	2A	-quil-	.	.	.	.
=33	=33	=33	=33	=33	=33	=33	=33	=33	=33	=33	=33
!!LO:TX:a:t=[half-dot]&rarr;[half]
*M4/4	*	*M4/4	*	*M4/4	*	*M4/4	*	*M4/4	*	*M4/4	*
1GG	.	1r	.	2r	.	1G	-la	1r	.	1r	.
.	.	.	.	4r	.	.	.	.	.	.	.
.	.	.	.	4G	Non	.	.	.	.	.	.
=34	=34	=34	=34	=34	=34	=34	=34	=34	=34	=34	=34
4D	.	1r	.	8.F	a	1r	.	1r	.	1r	.
.	.	.	.	16G	gli	.	.	.	.	.	.
4AA	.	.	.	4E	scher-	.	.	.	.	.	.
2D	.	.	.	4D	-ni	.	.	.	.	.	.
.	.	.	.	8r	.	.	.	.	.	.	.
.	.	.	.	8D	al	.	.	.	.	.	.
=35	=35	=35	=35	=35	=35	=35	=35	=35	=35	=35	=35
2C	.	1r	.	8E	re-	4r	.	1r	.	1r	.
.	.	.	.	8F	-gno io	.	.	.	.	.	.
.	.	.	.	8G	ti	4e	Non	.	.	.	.
.	.	.	.	8E	ri-	.	.	.	.	.	.
4D	.	.	.	2A	-ser-	8.d	a	.	.	.	.
.	.	.	.	.	.	16e	gli	.	.	.	.
4A	.	.	.	.	.	4c	scher-	.	.	.	.
=36	=36	=36	=36	=36	=36	=36	=36	=36	=36	=36	=36
4G	.	1r	.	2G	-vo,	4B	-ni	1r	.	1r	.
4E	.	.	.	.	.	8r	.	.	.	.	.
.	.	.	.	.	.	8G	al	.	.	.	.
4F	.	.	.	4r	.	8A	re-	.	.	.	.
.	.	.	.	.	.	8B	-gno io	.	.	.	.
4FF	.	.	.	4A	Non	8c	ti	.	.	.	.
.	.	.	.	.	.	8A	ri-	.	.	.	.
=37	=37	=37	=37	=37	=37	=37	=37	=37	=37	=37	=37
4GG	.	1r	.	8.G	a	2B	-ser-	1r	.	1r	.
.	.	.	.	16A	gli	.	.	.	.	.	.
4D	.	.	.	4F	scher-	.	.	.	.	.	.
2C	.	.	.	2E	-ni,	4c	-vo,	.	.	.	.
.	.	.	.	.	.	8r	.	.	.	.	.
.	.	.	.	.	.	8C	<al	.	.	.	.
=38	=38	=38	=38	=38	=38	=38	=38	=38	=38	=38	=38
2C	.	1r	.	4r	.	8E	re-	1r	.	1r	.
.	.	.	.	.	.	8F	-gno io	.	.	.	.
.	.	.	.	4e	<Non	8G	ti	.	.	.	.
.	.	.	.	.	.	8E	ri-	.	.	.	.
4D	#	.	.	8.d	a	2F#X	-ser-	.	.	.	.
.	.	.	.	16e	gli	.	.	.	.	.	.
4AA	#6	.	.	4c	scher-	.	.	.	.	.	.
=39	=39	=39	=39	=39	=39	=39	=39	=39	=39	=39	=39
4GG	.	1r	.	4B	-ni>	4G	-vo,>	1r	.	1r	.
4G	.	.	.	8r	.	8r	.	.	.	.	.
.	.	.	.	8G	al	8B	<al	.	.	.	.
4F	.	.	.	8A	re-	8c	re-	.	.	.	.
.	.	.	.	8B	-gno io	8d	-gno io	.	.	.	.
4C	.	.	.	8c	ti	8e	ti	.	.	.	.
.	.	.	.	8A	ri-	8c	ri-	.	.	.	.
=40	=40	=40	=40	=40	=40	=40	=40	=40	=40	=40	=40
2G	.	2r	.	2B	-ser-	2d	-ser-	1r	.	2r	.
2C	.	8r	.	2c	-vo	2c	-vo>	.	.	8r	.
.	.	8C	Ne-	.	.	.	.	.	.	8g	Ne-
.	.	8E	-mi-	.	.	.	.	.	.	8g	-mi-
.	.	8F	-co	.	.	.	.	.	.	8a	-co
=41	=41	=41	=41	=41	=41	=41	=41	=41	=41	=41	=41
1G	.	1G	no,	8r	.	1r	.	1r	.	8b	no,
.	.	.	.	8B	Ne-	.	.	.	.	8dd	Ne-
.	.	.	.	8G	-mi-	.	.	.	.	8b	-mi-
.	.	.	.	8A	-co	.	.	.	.	8cc	-co
.	.	.	.	8B	no	.	.	.	.	8dd	no
.	.	.	.	8A	ma	.	.	.	.	8cc	ma
.	.	.	.	8B	tuo	.	.	.	.	8b	tuo
.	.	.	.	8c	cam-	.	.	.	.	8a	cam-
=42	=42	=42	=42	=42	=42	=42	=42	=42	=42	=42	=42
4G	.	8r	.	4d	-pio-	8r	.	1r	.	4g	-pio-
.	.	8G	Ne-	.	.	8B	Ne-	.	.	.	.
8EL	6	8E	-mi-	4e	-ne e	8G	-mi-	.	.	4cc	-ne e
8FJ	.	8F	-co	.	.	8A	-co	.	.	.	.
8GL	.	8G	no	4d	ser-	2B	no,	.	.	2b	ser-
8FJ	.	8F	ma	.	.	.	.	.	.	.	.
8EL	.	8E	tuo	4G	-vo,	.	.	.	.	.	.
8DJ	.	8D	cam-	.	.	.	.	.	.	.	.
=43	=43	=43	=43	=43	=43	=43	=43	=43	=43	=43	=43
2C	.	2C	-pio-	1r	.	8r	.	8r	.	1cc	-vo,
.	.	.	.	.	.	8e	Ne-	8g	Ne-	.	.
.	.	.	.	.	.	8c	-mi-	8e	-mi-	.	.
.	.	.	.	.	.	8d	-co	8f	-co	.	.
2C	.	2C	-ne e	.	.	8e	no	2g	no,	.	.
.	.	.	.	.	.	8d	ma	.	.	.	.
.	.	.	.	.	.	8c	tuo	.	.	.	.
.	.	.	.	.	.	8B	cam-	.	.	.	.
=44	=44	=44	=44	=44	=44	=44	=44	=44	=44	=44	=44
2D	.	2D	ser-	8r	.	4A	-pio-	8r	.	1r	.
.	.	.	.	8d	<Ne-	.	.	8f	<Ne-	.	.
.	.	.	.	8B	-mi-	4G	-ne e	8d	-mi-	.	.
.	.	.	.	8c	-co	.	.	8e	-co	.	.
2D	.	2D	-vo,	8d	no	4A	ser-	2f	no>,	.	.
.	.	.	.	8c	ma	.	.	.	.	.	.
.	.	.	.	8B	tuo	4d	-vo,	.	.	.	.
.	.	.	.	8A	cam-	.	.	.	.	.	.
=45	=45	=45	=45	=45	=45	=45	=45	=45	=45	=45	=45
2G	.	1r	.	2G	-pio-	1r	.	8r	.	8r	.
.	.	.	.	.	.	.	.	8g	Ne-	8b	<Ne-
.	.	.	.	.	.	.	.	8e	-mi-	8g	-mi-
.	.	.	.	.	.	.	.	8f	-co	8a	-co
2G	.	.	.	2G	-ne e	.	.	8g	no	8b	no
.	.	.	.	.	.	.	.	8f	ma	8a	ma
.	.	.	.	.	.	.	.	8e	tuo	8g	tuo
.	.	.	.	.	.	.	.	8d	cam-	8f	cam-
=46	=46	=46	=46	=46	=46	=46	=46	=46	=46	=46	=46
1A	#	1r	.	1A	ser-	1r	.	4c#X	-pio-	4e	-pio-
.	.	.	.	.	.	.	.	4d	-ne e	4d	-ne e
.	.	.	.	.	.	.	.	4d	ser-	2e	ser-
.	.	.	.	.	.	.	.	4c#X	.	.	.
=47	=47	=47	=47	=47	=47	=47	=47	=47	=47	=47	=47
4D	.	8r	.	1D	-vo>,	1r	.	8d	-vo,	2d	-vo,>
.	.	8D	Ne-	.	.	.	.	8f	<Ne-	.	.
8BBL	.	8BB	-mi-	.	.	.	.	8d	-mi-	.	.
8CJ	.	8C	-co	.	.	.	.	8e	-co	.	.
8DL	.	8D	no	.	.	.	.	8f	no	8r	.
8CJ	.	8C	ma	.	.	.	.	8e	ma	8g	Ne-
8BBL	.	8BB	tuo	.	.	.	.	8d	tuo	8b	-mi-
8AAJ	.	8AA	cam-	.	.	.	.	8c	cam-	8cc	-co
=48	=48	=48	=48	=48	=48	=48	=48	=48	=48	=48	=48
2GG	.	2GG	-pio-	2r	.	8r	.	2.B	-pio-	8dd	no
.	.	.	.	.	.	8G	<Ne-	.	.	8cc	ma
.	.	.	.	.	.	8B	-mi-	.	.	8b	tuo
.	.	.	.	.	.	8c	-co	.	.	8a	cam-
2GG	.	2GG	-ne,	8r	.	8d	no	.	.	4g	-pio-
.	.	.	.	8G	Ne-	8c	ma	.	.	.	.
.	.	.	.	8B	-mi-	8B	tuo	4d	-ne e	4g	-ne,
.	.	.	.	8c	-co	8A	cam-	.	.	.	.
=49	=49	=49	=49	=49	=49	=49	=49	=49	=49	=49	=49
4G	.	8r	.	(>8dL	no,	4G	-pio-	4g	ser-	8r	.
.	.	8G	Ne-	8B)J	.	.	.	.	.	8b	<Ne-
8EL	6	8E	-mi-	4e	.	4c	-ne e	4g	-vo,>	8g	-mi-
8FJ	.	8F	-co	.	.	.	.	.	.	8a	-co
8GL	.	8G	no	2r	.	4B	ser-	8r	.	4b	no
8FJ	.	8F	ma	.	.	.	.	8d	<Ne-	.	.
8EL	.	8E	tuo	.	.	4G	-vo,>	8e	-mi-	4cc	ma
8DJ	.	8D	cam-	.	.	.	.	8f	-co	.	.
=50	=50	=50	=50	=50	=50	=50	=50	=50	=50	=50	=50
2C	.	2C	-pio-	8r	.	8r	.	4g	no	2ee	tuo
.	.	.	.	8c	Ne-	8e	<Ne-	.	.	.	.
.	.	.	.	8A	-mi-	8c	-mi-	4a	ma	.	.
.	.	.	.	8B	-co	8d	-co	.	.	.	.
2C	.	2C	-ne e	8c	no	8e	no	4e	tuo	4g	cam-
.	.	.	.	8B	ma	8d	ma	.	.	.	.
.	.	.	.	8A	tuo	8c	tuo	4e	cam-	[4a	-pio-
.	.	.	.	8G	cam-	8B	cam-	.	.	.	.
=51	=51	=51	=51	=51	=51	=51	=51	=51	=51	=51	=51
1D	#	1D	ser-	4F#X	-pio-	4A	-pio-	4.d	-pio-	4a]	.
.	.	.	.	4G	-ne e	4G	-ne e	.	.	4b	-ne> e
.	.	.	.	.	.	.	.	8d	-ne e	.	.
.	.	.	.	4G	ser-	2A	ser-	2d	ser-	2a	ser-
.	.	.	.	4F#X	.	.	.	.	.	.	.
=52	=52	=52	=52	=52	=52	=52	=52	=52	=52	=52	=52
1GGl	.	1GGl	-vo.	1Gl	-vo.	1Bl	-vo>.	1dl	-vo>.	1bl	-vo.
==	==	==	==	==	==	==	==	==	==	==	==
*-	*-	*-	*-	*-	*-	*-	*-	*-	*-	*-	*-
!!!system-decoration: [(s1)(s2)(s3)(s4)(s5)]s6
!!!RDF**kern: > = above
!!!RDF**kern: i = editorial accidental
!!!RDF**kern: l = terminal long
!!!ENC: Emiliano Ricciardi
!!!END: 2019/08/08
!!!EED: Mazzetti, Marcello; Ticli, Livio
!!!EEV: 2019/08/08
!!!YEC: Copyright 2018 Emiliano Ricciardi, All Rights Reserved
!!!ONB: Translated from MusicXML on 2019/08/08
!!@@BEGIN:	VERSEDATA
!!@CATALOGNUM:	Tsg20134
!!@LAST_MODIFIED: 2020/07/12
!!@TITLE:		Così doleasi; e con le flebil'onde
!!@CANTO:		XX
!!@OTTAVA:	134
!!@MANUSRC:	G-Al, G-Au, G-Br<sub>2</sub>, G-Es<sub>1</sub>, G-Es<sub>2</sub>, G-Es<sub>3</sub>, G-F, G-Fr, G-Fr<sub>1</sub>, G-Fr<sub>2</sub>, G-Mc<sub>1</sub>, G-Mr, G-Mt, G-N, G-Ol
!!@PRINTSRC:	G-1580CM, G-1581B, G-1581CV, G-1581R, G-1581MR, G-1581P, G-1581V, G-1581V<sub>bis</sub>, G-1582C, G-1582M, G-1582MC, G-1582P, G-1582SC, G-1582SC<sub>bis</sub>, G-1583S, G-1584O, G-1584S, G-1585C, G-1585S, G-1588S, G-1589S, G-1590B, G-1590S, G-1592S, G-1593S, G-1594C, G-1595C, G-1597C, G-1598C, G-1599C, G-1600C, G-1600S, G-1601C, G-1601R, G-1602C, G-1604C, G-1604Cl, G-1604F, G-1604P, G-1606B, G-1606B<sub>bis</sub>, G-1606L, G-1607ZR, G-1608DP, G-1609GC, G-1610M, G-1611S, G-1611V, G-1612P, G-1613M, G-1613P, G-1613V, G-1615P, G-1616M, G-1617P, G-1619B, G-1619V, G-1620M, G-1620S, G-1621R, G-1624I, G-1624MT, G-1625C, G-1625S, G-1625SS, G-1626C, G-1626Co, G-1627M, G-1628T, G-1628Tu, G-1630L, G-1630T, G-1632FT, G-1639CF, G-1642M, G-1643I, G-1644P, G-1644S
!!@@BEGIN:	VERSES
!!@ABOUTIT:
!!@ABOUTEN:
!!@EDITOR:	Angelo Solerti
!!@EDITION_TITLE: Gerusalemme liberata. Poema eroico di Torquato Tasso. Edizione critica sui manoscritti e le prime stampe.
!!@EDITION_LOC:	Florence
!!@EDITION_PUB:	G. Barbera
!!@EDITION_DATE:  1895
!!@EDITION_VOL:
!!@EDITION_PAGE:
!!@TRANSLATOR:	Emiliano Ricciardi and Amyrose McCue Gill
!!@VERSE:
!!	Così doleasi; e con le flebil’onde
!!	Ch’amor e sdegno da’ begli occhi stilla,
!!	L’affettuoso pianto egli confonde,
!!	In cui pudíca la pietà sfavilla,
!!	E con modi dolcissimi risponde:
!!	Armida, il cor turbato omai tranquilla:
!!	Non agli scherni, al regno io ti riservo,
!!	Nemico no; ma tuo campione e servo.
!!@TVERSE:
!!	Thus she grieved; and with the faint waves
!!	That love and scorn from her beautiful eyes distill,
!!	The heartfelt lament flusters him,
!!	In whom compassion subtly glows.
!!	And with sweetest phrases he responds:
!!	Armida, calm now your troubled heart:
!!	for derision [but] for rule I destin you,
!!	Enemy no; but your champion and servant.
!!@@END:		VERSES
!!@OTHER_CRIT_ED:  Torquato Tasso, <i>Gerusalemme liberata</i>, ed. Lanfranco Caretti, 2 vols. (Bari: Laterza, 1967).
!!@ATTRIBUTION_ABOUT:
!!@DATING:	mid-1560s through 1570s
!!@DEDICATEE:	Duke Alfonso II d'Este
!!@COMMENTARY:
!!@@END:		VERSEDATA
!!@@BEGIN: SETTING
!!@CATALOGNUM:	Tsg20134a
!!@CANTO:		XX
!!@OTTAVA:	134
!!@TITLE:	Così doleasi; e con le flebil'onde
!!@SETTINGTITLE: Così doleasi; e con le flebil onde
!!@COMPOSER:	Eredi, Francesco
!!@PARTS:		10 of 10
!!@PRINCEPSTITLE:	L'Armida del Tasso posta in musica a cinque voci, col suo basso per suonare
!!@PRINCEPSLOC:	Venice
!!@NORMLOC:	Venice
!!@NORMPUB:	Alessandro Vincenti
!!@NORMPUBSHORT:	A. Vincenti
!!@PRINCEPSPUB:	Alessandro Vincenti
!!@PRINCEPSYEAR:	1629
!!@PRINCEPSRISM:	E 741
!!@OVOICES:	5+bc
!!@EXTANTVOICES:	5+bc
!!@OMENSURATION:	C; 3/2; C
!!@OCLEFS:	C1,C3,C4,C4,F4,F4
!!@OTIME:		
!!@OKEYSIG:	-
!!@FINAL:		G
!!@TIMPEDITOR:	Mazzetti, Marcello; Ticli, Livio
!!@REPRINTS:	
!!@@END: SETTING
